src/assets/icons/sax/IconArchiveBook.svg

<svg width="20" height="20" viewBox="0 0 24 24" fill="none" xmlns="http://www.w3.org/2000/svg">
<path d="M21 7V17C21 20 19.5 22 16 22H8C4.5 22 3 20 3 17V7C3 4 4.5 2 8 2H16C19.5 2 21 4 21 7Z" stroke="currentColor" stroke-width="1.5" stroke-miterlimit="10" stroke-linecap="round" stroke-linejoin="round"/>
<path d="M15.5 2V9.85999C15.5 10.3 14.98 10.52 14.66 10.23L12.34 8.09003C12.15 7.91003 11.85 7.91003 11.66 8.09003L9.34003 10.23C9.02003 10.52 8.5 10.3 8.5 9.85999V2H15.5Z" stroke="currentColor" stroke-width="1.5" stroke-miterlimit="10" stroke-linecap="round" stroke-linejoin="round"/>
<path d="M13.25 14H17.5" stroke="currentColor" stroke-width="1.5" stroke-miterlimit="10" stroke-linecap="round" stroke-linejoin="round"/>
<path d="M9 18H17.5" stroke="currentColor" stroke-width="1.5" stroke-miterlimit="10" stroke-linecap="round" stroke-linejoin="round"/>
</svg>

<svg xmlns="http://www.w3.org/2000/svg" width="20" height="20" fill="none" viewBox="0 0 24 24">
  <path stroke="currentcolor" stroke-linecap="round" stroke-linejoin="round" stroke-miterlimit="10" stroke-width="1.5" d="M21 7v10c0 3-1.5 5-5 5H8c-3.5 0-5-2-5-5V7c0-3 1.5-5 5-5h8c3.5 0 5 2 5 5"/>
  <path stroke="currentcolor" stroke-linecap="round" stroke-linejoin="round" stroke-miterlimit="10" stroke-width="1.5" d="M15.5 2v7.86a.5.5 0 0 1-.84.37l-2.32-2.14a.5.5 0 0 0-.68 0l-2.32 2.14a.5.5 0 0 1-.84-.37V2zm-2.25 12h4.25M9 18h8.5"/>
</svg>
